X: 550
T: Elk River Blues
C:OldTime, by Ernie Carpenter, West Virginia fiddler
B: jims roots
M:4/4
L:1/8
Q: 1/4=100
K:G
V:1 
%Transcibed by Wendy Anthony  22 Jul 2008
%160
G (3ABd |: [M:5/4]"C"e2 e2 (3zef ed (3BAB | [M:4/4] "G"d2 d2 (3zAA Bd |
V:M:5/4 
 "C"e2 e2 (3zef ed (3BAG | [M:4/4] "Am"A2 A2 "D"zD EG | [M:5/4]"Am"A2 A2 (3zAB AG (3EDE |
V:M:4/4 
"G"G2 [G2B,2] zD EG |[M:5/4]"Am"A2 A2 (3zAB AG (3EDE | [M:4/4]"G"G2 [G2B,2] zG (3ABd :| "G"G2 [G2B,2] z4 |]
% abcbook-tune_id 6298c25d574bb1b75f085804


% abcbook-boost 0
% abcbook-tablature 
% abcbook-transpose 
% abcbook-lastupdated 1654178397868
% abcbook-soundfonts 
% abcbook-repeats 1


